X:685
T:
N:Brudmarsch,
S:efter »Florsen» i Burs.
N:Denna marsch speltes även vid de högtidligaste tillfällena till ära för \
  brudparet och var lika populär och bekant som »paradmarschen».
O:Gotland, Burs
R:marsch
M:C
L:1/8
K:G
[G,DBg]2 [G,DBg]>[G,DBg] d2 (B/d/g/b/)|d2 d>d Bdgb|{d}c2 {d}cB ABcd|
[Gce]2 e>e d>B cA|G>g gg d2 (B/d/g/b/)|d2 d>d Bdgb|{f}c2 {d}cB A>g fa|
g2 [G,DBg]>g [G,Bg]3 z:|
K:C
|:{c}Le2-e(f/e/) dBcA|{A} G2-G>F EGce|d>>e Lf2 G>A Bd|c>>d ee  G7/2 c/|
Le2-ef/e/ dBcA|{A} G2-G>F EGce|d>>e Lf2 G>A Bd|c2 [G,Ec]>c [CEc]4:|

